X: 10711
T: Downy In A Tree
R: reel
M: 4/4
K: Gdorian
BG (3GGG BcdB|AF (3FFF DFAF|GD (3DDD DCB,C|A,B, (3B,B,B, B,CDF|
BG (3GGG BcdB|AF (3FFF DFAF|GD (3DDD DC (3CCC|CB, (3B,B,B, G,B,DF|
BG (3GGG BcdB|AF (3FFF DFAF|GD (3DDD DCB,C|A,B, (3B,B,B, B,CDF|
BG (3GGG BcdB|AF (3FFF DFAF|GD (3DDD DC (3CCC|CB, (3B,B,B, B,DFA|
gd (3ddd gbag|fc (3ccc fgaf|gd (3ddd dc (3ccc|cB (3BBB ABce|
gd (3ddd gbag|fc (3ccc fgaf|AB (3BBB Bc (3:2:3ccc|cd (3ddd fdfa|
gd (3ddd gbag|fc (3ccc fgaf|gd (3ddd dc (3:2:3ccc|cB (3BBB ABce|
gd (3ddd gbag|fc (3ccc fgaf|AB (3BBB Bc (3ccc|cd (3ddd BGAc:|
cd (3ddd fdfa|[=Bg]8|

